X:102
U: ~ = !turn!
%%topmargin 3cm
T:Kathleen's Fiddle
B:Traditional Irish Fiddle Tunes. Randy Miller and Jack Perron.
S:Andy McGann
Z:Transcribed by Ralph Palmer
R:Reel
M:C|
L:1/8
K:F
Ac (3{/d}(cBc) AF (3{/G}(FEF) | DGGA G2 FD | CFAF CFAF | G2 FG AGFG |
Jc2 cd cdcA | GFAF GFDF | CFAF CFAF | G2 FG AF F2 ||
Ac (3{/d}(cBc) dcAc | dggf gfdc | fgfd {cd}c2 Ac | fefg agfg |
{fg}f2 df c2 Ac | dgga gfdc | fgfd {cd}c2 Ac | fefg afgf |]
